svg/checkMark.svg

<svg width="284" height="284" viewBox="0 0 284 284" fill="none" xmlns="http://www.w3.org/2000/svg">
<path fill-rule="evenodd" clip-rule="evenodd" d="M239.525 141.764C239.525 87.9849 195.773 44.2329 141.994 44.2329C88.2149 44.2329 44.4629 87.9849 44.4629 141.764C44.4629 195.543 88.2149 239.295 141.994 239.295C154.26 239.295 166.001 237.013 176.823 232.861C175.409 231.604 173.993 230.349 172.577 229.094C162.999 232.458 152.708 234.295 141.994 234.295C90.9719 234.295 49.4629 192.786 49.4629 141.764C49.4629 90.7419 90.9719 49.2329 141.994 49.2329C193.016 49.2329 234.525 90.7419 234.525 141.764C234.525 182.073 208.615 216.437 172.577 229.094C173.993 230.349 175.409 231.604 176.823 232.861C213.451 218.809 239.525 183.277 239.525 141.764Z" fill="#1A1919"/>
<path fill-rule="evenodd" clip-rule="evenodd" d="M128.354 177.857C127.755 177.857 127.155 177.643 126.678 177.211L96.1598 149.611C95.1358 148.684 95.0568 147.103 95.9828 146.08C96.9088 145.055 98.4908 144.975 99.5138 145.902L128.267 171.908L185.94 114.191C186.917 113.213 188.5 113.214 189.475 114.19C190.453 115.166 190.453 116.749 189.477 117.725L130.123 177.125C129.636 177.611 128.996 177.857 128.354 177.857Z" fill="#1A1919"/>
</svg>

<svg width="284" height="284" viewBox="0 0 284 284" xmlns="http://www.w3.org/2000/svg">
    <g fill="#1A1918" fill-rule="evenodd">
        <path d="M239.525 141.764c0-53.78-43.752-97.531-97.531-97.531-53.78 0-97.531 43.752-97.531 97.53 0 53.78 43.752 97.532 97.53 97.532a97.028 97.028 0 0 0 34.83-6.434c-1.414-1.257-2.83-2.512-4.246-3.767a92.117 92.117 0 0 1-30.583 5.2c-51.022 0-92.531-41.508-92.531-92.53s41.509-92.531 92.53-92.531c51.023 0 92.532 41.509 92.532 92.53 0 40.31-25.91 74.674-61.948 87.33 1.416 1.256 2.832 2.51 4.246 3.768 36.628-14.052 62.702-49.584 62.702-91.097"/>
        <path d="M128.354 177.857a2.49 2.49 0 0 1-1.676-.646l-30.518-27.6a2.5 2.5 0 0 1 3.354-3.709l28.753 26.006 57.673-57.717a2.498 2.498 0 0 1 3.535-.001c.978.976.978 2.559.002 3.535l-59.354 59.4a2.498 2.498 0 0 1-1.77.732"/>
    </g>
</svg>
